X: 920
T: the Flowers of Edinburgh   #2
O: Scotland
R: hornpipe, Scots measure
%S: s:3 b:14(7+7)
B: Francis O'Neill: "The Dance Music of Ireland" (1907) #920
Z: Frank Nordberg - http://www.musicaviva.com
F: http://www.musicaviva.com/abc/tunes/scotland/oneill-1001/0920/oneill-1001-0920-1.abc
N: Compacted via repeats and multiple endings [JC]
M: 2/4
L: 1/16
K: G
"^A"|: (GE) | D2(DE) G2G2 | BGBd [1,3 cBAG | FGEF DEFG | AFcF E2 :|[2,4 efge |
| dcBA GFGA | B2G2G2 "^B" :: (3def | g2(gf) gbag | f2(fe) fagf | edef gfed |
| B2e2 e2 || (ge) | dBGB d2(Bd) | (3(efg) (fa) g2(ge) | dcBA GFGA | B2G2G2 :|
